src/assets/icons/filters/categories/laundry_stroke.svg

<svg width="40" height="48" viewBox="0 0 40 48" fill="none" xmlns="http://www.w3.org/2000/svg">
<path fill-rule="evenodd" clip-rule="evenodd" d="M36.7999 41.6559C36.7999 42.5071 36.0863 43.1999 35.2079 43.1999H4.79199C3.91199 43.1999 3.19999 42.5071 3.19999 41.6559V4.74239C3.19999 3.89119 3.91359 3.19999 4.79199 3.19999H35.2079C36.0879 3.19999 36.7999 3.89119 36.7999 4.74239V41.6559V41.6559ZM35.3199 0C37.9007 0 39.9999 2.0464 39.9999 4.55999V41.9359C39.9999 44.4319 37.9343 46.4591 35.3823 46.4927L35.3839 46.4991C35.3788 46.9019 35.214 47.2863 34.9257 47.5677C34.6374 47.8491 34.2492 48.0046 33.8463 47.9999H30.7679C30.5683 48.0024 30.3702 47.9656 30.1848 47.8916C29.9994 47.8175 29.8304 47.7077 29.6875 47.5683C29.5445 47.4289 29.4305 47.2628 29.3517 47.0793C29.273 46.8959 29.2312 46.6987 29.2287 46.4991H10.7696C10.7671 46.6987 10.7253 46.8959 10.6466 47.0793C10.5678 47.2628 10.4538 47.4289 10.3108 47.5683C10.1679 47.7077 9.99892 47.8175 9.81353 47.8916C9.62815 47.9656 9.42999 48.0024 9.23037 47.9999H6.15358C5.75072 48.0046 5.36247 47.8491 5.07416 47.5677C4.78584 47.2863 4.62105 46.9019 4.61599 46.4991V46.4927C1.5392 46.4607 0 44.4319 0 41.9359V4.55999C0 2.0464 2.09919 0 4.67999 0H35.3199ZM30.8463 6.81598C30.5663 7.10078 30.4065 7.48227 30.3999 7.88158C30.3999 8.27198 30.5695 8.66078 30.8463 8.94558C31.1391 9.21758 31.5391 9.38078 31.9391 9.38078C32.3391 9.38078 32.7391 9.21598 33.0303 8.94558C33.3105 8.66144 33.4709 8.28055 33.4783 7.88158C33.4713 7.48205 33.3109 7.10052 33.0303 6.81598C32.4463 6.26078 31.4303 6.26078 30.8463 6.81598V6.81598ZM27.1391 9.38078C27.5391 9.38078 27.9391 9.21598 28.2303 8.94558C28.5105 8.66144 28.6709 8.28055 28.6783 7.88158C28.6713 7.48205 28.5109 7.10052 28.2303 6.81598C27.6607 6.26078 26.6143 6.26078 26.0463 6.81598C25.7664 7.10078 25.6065 7.48227 25.5999 7.88158C25.5999 8.27198 25.7695 8.66078 26.0463 8.94558C26.3391 9.21758 26.7391 9.38078 27.1391 9.38078V9.38078ZM22.3391 9.38078C22.7391 9.38078 23.1391 9.21598 23.4303 8.94558C23.7105 8.66144 23.8709 8.28055 23.8783 7.88158C23.8713 7.48205 23.7109 7.10052 23.4303 6.81598C22.8463 6.26078 21.8143 6.26078 21.2463 6.81598C20.9664 7.10078 20.8066 7.48227 20.7999 7.88158C20.7999 8.27198 20.9695 8.66078 21.2463 8.94558C21.5391 9.21758 21.9391 9.38078 22.3391 9.38078V9.38078ZM7.93918 9.39998H15.6304C15.83 9.40251 16.0281 9.3657 16.2135 9.29165C16.3989 9.2176 16.5679 9.10776 16.7108 8.96839C16.8537 8.82903 16.9678 8.66287 17.0465 8.47942C17.1252 8.29596 17.1671 8.09879 17.1696 7.89918C17.1641 7.49632 16.9989 7.11212 16.7103 6.831C16.4216 6.54989 16.0332 6.39486 15.6304 6.39998H7.93918C7.73957 6.39745 7.54141 6.43426 7.35602 6.50831C7.17064 6.58236 7.00165 6.6922 6.85872 6.83157C6.71579 6.97093 6.60171 7.13709 6.523 7.32054C6.44429 7.504 6.40249 7.70117 6.39998 7.90078C6.39998 8.72798 7.08798 9.39998 7.93918 9.39998V9.39998ZM19.9999 36.7999C17.2426 36.7969 14.5991 35.7003 12.6493 33.7505C10.6996 31.8008 9.60294 29.1573 9.59998 26.3999C9.59998 20.6655 14.2656 16 19.9999 16C25.7343 16 30.3999 20.6655 30.3999 26.3999C30.3999 32.1343 25.7343 36.7999 19.9999 36.7999ZM6.39998 26.3999C6.39998 33.8975 12.5024 39.9999 19.9999 39.9999C27.4975 39.9999 33.5999 33.8975 33.5999 26.3999C33.5999 18.9024 27.4975 12.8 19.9999 12.8C12.5024 12.8 6.39998 18.9024 6.39998 26.3999ZM19.9999 19.4992C15.7584 19.4992 12.3072 22.8639 12.3072 26.9999C12.3126 27.4028 12.4778 27.787 12.7665 28.0681C13.0551 28.3492 13.4435 28.5043 13.8464 28.4991C14.249 28.5038 14.637 28.3486 14.9252 28.0675C15.2135 27.7865 15.3785 27.4025 15.384 26.9999C15.384 24.5183 17.456 22.4991 19.9999 22.4991C20.4028 22.5043 20.7912 22.3492 21.0798 22.0681C21.3685 21.787 21.5337 21.4028 21.5391 20.9999C21.5366 20.8003 21.4948 20.6032 21.4161 20.4197C21.3374 20.2363 21.2233 20.0701 21.0804 19.9307C20.9375 19.7914 20.7685 19.6815 20.5831 19.6075C20.3977 19.5334 20.1996 19.4966 19.9999 19.4992Z" fill="black"/>
</svg>

<svg width="40" height="48" viewBox="0 0 40 48" fill="none" xmlns="http://www.w3.org/2000/svg"><path fill-rule="evenodd" clip-rule="evenodd" d="M36.8 41.656c0 .851-.714 1.544-1.592 1.544H4.792c-.88 0-1.592-.693-1.592-1.544V4.742c0-.85.714-1.542 1.592-1.542h30.416c.88 0 1.592.691 1.592 1.542v36.914zM35.32 0C37.9 0 40 2.046 40 4.56v37.376c0 2.496-2.066 4.523-4.618 4.557l.002.006a1.52 1.52 0 01-1.538 1.5h-3.078a1.521 1.521 0 01-1.54-1.5H10.77A1.52 1.52 0 019.23 48H6.154a1.52 1.52 0 01-1.538-1.5v-.006C1.539 46.46 0 44.432 0 41.936V4.56C0 2.046 2.1 0 4.68 0h30.64zm-4.474 6.816c-.28.285-.44.666-.446 1.066 0 .39.17.779.446 1.064.293.272.693.435 1.093.435s.8-.165 1.091-.435c.28-.285.44-.665.448-1.064a1.556 1.556 0 00-.448-1.066c-.584-.555-1.6-.555-2.184 0zM27.14 9.381c.4 0 .8-.165 1.091-.435.28-.285.44-.665.448-1.064a1.556 1.556 0 00-.448-1.066c-.57-.555-1.616-.555-2.184 0-.28.285-.44.666-.446 1.066 0 .39.17.779.446 1.064.293.272.693.435 1.093.435zm-4.8 0c.4 0 .8-.165 1.091-.435.28-.285.44-.665.448-1.064a1.556 1.556 0 00-.448-1.066c-.584-.555-1.616-.555-2.184 0-.28.285-.44.666-.446 1.066 0 .39.17.779.446 1.064.293.272.693.435 1.093.435zM7.94 9.4h7.691a1.52 1.52 0 001.54-1.5 1.52 1.52 0 00-1.54-1.5H7.94A1.52 1.52 0 006.4 7.9c0 .828.688 1.5 1.54 1.5zM20 36.8A10.411 10.411 0 019.6 26.4C9.6 20.666 14.266 16 20 16s10.4 4.666 10.4 10.4S25.734 36.8 20 36.8zM6.4 26.4C6.4 33.898 12.502 40 20 40c7.497 0 13.6-6.102 13.6-13.6 0-7.498-6.103-13.6-13.6-13.6-7.498 0-13.6 6.102-13.6 13.6zM20 19.5c-4.242 0-7.693 3.364-7.693 7.5a1.52 1.52 0 001.54 1.5 1.52 1.52 0 001.537-1.5c0-2.482 2.072-4.5 4.616-4.5a1.52 1.52 0 001.54-1.5A1.52 1.52 0 0020 19.5z" fill="#000"/></svg>
